; generated by Slic3r 0.9.9 on 2014-09-15 at 21:37:43

; layer_height = 0.25
; perimeters = 5
; top_solid_layers = 5
; bottom_solid_layers = 5
; fill_density = 0.4
; perimeter_speed = 30
; infill_speed = 100
; travel_speed = 150
; nozzle_diameter = 0.4
; filament_diameter = 1.75
; extrusion_multiplier = 1
; perimeters extrusion width = 0.53mm
; infill extrusion width = 0.53mm
; solid infill extrusion width = 0.53mm
; top infill extrusion width = 0.53mm

G21 ; set units to millimeters
M107
M190 S60 ; wait for bed temperature to be reached
M104 S215 ; set temperature
G28 ; home all axes
G1 Z5 F5000 ; lift nozzle
M107; turn off fan
M109 S215 ; wait for temperature to be reached
G90 ; use absolute coordinates
G92 E0
M82 ; use absolute distances for extrusion
G1 F1800.000 E-1.00000
G92 E0
G1 Z0.300 F9000.000
G1 X30.620 Y59.216
G1 F1800.000 E1.00000
G1 X106.830 Y15.216 F900.000 E6.51705
G1 X108.650 Y14.266 E6.64576
G1 X108.920 Y14.136 E6.66455
G1 X109.470 Y13.916 E6.70169
G1 X110.050 Y13.746 E6.73958
G1 X110.630 Y13.626 E6.77671
G1 X112.650 Y13.326 E6.90474
G1 X113.310 Y13.296 E6.94616
G1 X113.970 Y13.326 E6.98758
G1 X116.290 Y13.676 E7.13468
G1 X117.150 Y13.916 E7.19066
G1 X117.710 Y14.136 E7.22838
G1 X119.520 Y15.056 E7.35567
G1 X119.810 Y15.216 E7.37643
G1 X120.370 Y15.586 E7.41851
G1 X120.890 Y15.996 E7.46003
G1 X122.350 Y17.436 E7.58859
G1 X122.650 Y17.756 E7.61609
G1 X158.960 Y58.896 E11.05622
G1 X166.610 Y68.656 E11.83367
G1 X167.020 Y69.296 E11.88133
G1 X167.910 Y71.046 E12.00441
G1 X168.040 Y71.306 E12.02264
G1 X168.260 Y71.846 E12.05919
G1 X168.350 Y72.126 E12.07763
G1 X168.490 Y72.686 E12.11382
G1 X168.810 Y74.676 E12.24019
G1 X168.890 Y75.696 E12.30433
G1 X168.890 Y152.696 E17.13176
G1 X168.810 Y153.716 E17.19590
G1 X168.480 Y155.746 E17.32484
G1 X168.310 Y156.396 E17.36696
G1 X168.070 Y157.026 E17.40923
G1 X167.140 Y158.876 E17.53904
G1 X166.850 Y159.396 E17.57637
G1 X166.510 Y159.886 E17.61376
G1 X165.920 Y160.556 E17.66973
G1 X164.700 Y161.766 E17.77746
G1 X164.190 Y162.216 E17.82010
G1 X163.650 Y162.606 E17.86186
G1 X163.360 Y162.786 E17.88326
G1 X161.520 Y163.726 E18.01280
G1 X161.210 Y163.876 E18.03439
G1 X160.580 Y164.116 E18.07665
G1 X159.930 Y164.286 E18.11878
G1 X157.900 Y164.616 E18.24772
G1 X156.880 Y164.696 E18.31186
G1 X90.880 Y164.696 E22.44966
G1 X89.850 Y164.616 E22.51443
G1 X87.830 Y164.286 E22.64275
G1 X87.180 Y164.116 E22.68487
G1 X86.560 Y163.876 E22.72655
G1 X84.710 Y162.946 E22.85636
G1 X84.410 Y162.786 E22.87768
G1 X83.850 Y162.416 E22.91976
G1 X83.580 Y162.216 E22.94082
G1 X83.070 Y161.766 E22.98346
G1 X81.850 Y160.556 E23.09119
G1 X81.500 Y160.176 E23.12358
G1 X81.030 Y159.566 E23.17186
G1 X41.000 Y99.966 E27.67298
G1 X26.850 Y75.466 E29.44676
G1 X25.940 Y73.656 E29.57377
G1 X25.720 Y73.116 E29.61032
G1 X25.490 Y72.256 E29.66613
G1 X25.180 Y70.266 E29.79240
G1 X25.140 Y69.946 E29.81262
G1 X25.110 Y69.286 E29.85404
G1 X25.140 Y68.626 E29.89546
G1 X25.490 Y66.316 E30.04194
G1 X25.730 Y65.466 E30.09731
G1 X25.940 Y64.926 E30.13363
G1 X26.990 Y62.856 E30.27915
G1 X27.140 Y62.596 E30.29797
G1 X27.480 Y62.106 E30.33536
G1 X28.070 Y61.436 E30.39133
G1 X29.530 Y59.996 E30.51989
G1 X30.060 Y59.576 E30.56229
G1 X30.555 Y59.254 E30.59931
G1 F1800.000 E29.59931
G92 E0
G1 X111.937 Y24.903 F9000.000
G1 F1800.000 E1.00000
G1 X111.827 Y24.204 F900.000 E1.04440
G1 X111.937 Y23.505 E1.08879
G1 X112.259 Y22.874 E1.13319
G1 X112.760 Y22.373 E1.17758
G1 X113.391 Y22.051 E1.22198
G1 X114.090 Y21.941 E1.26638
G1 X114.789 Y22.051 E1.31077
G1 X115.420 Y22.373 E1.35517
G1 X115.921 Y22.874 E1.39956
G1 X116.243 Y23.505 E1.44396
G1 X116.353 Y24.204 E1.48836
G1 X116.243 Y24.903 E1.53275
G1 X115.921 Y25.534 E1.57715
G1 X115.420 Y26.035 E1.62154
G1 X114.789 Y26.357 E1.66594
G1 X114.090 Y26.467 E1.71034
G1 X113.391 Y26.357 E1.75473
G1 X112.760 Y26.035 E1.79914
G1 X112.259 Y25.534 E1.84352
G1 X111.972 Y24.971 E1.88320
G1 X112.421 Y24.746 F9000.000
G1 X112.336 Y24.204 F900.000 E1.91761
G1 X112.421 Y23.662 E1.95202
G1 X112.671 Y23.173 E1.98644
G1 X113.059 Y22.785 E2.02085
G1 X113.548 Y22.535 E2.05527
G1 X114.090 Y22.450 E2.08968
G1 X114.632 Y22.535 E2.12409
G1 X115.121 Y22.785 E2.15851
G1 X115.509 Y23.173 E2.19292
G1 X115.759 Y23.662 E2.22733
G1 X115.844 Y24.204 E2.26175
G1 X115.759 Y24.746 E2.29616
G1 X115.509 Y25.235 E2.33057
G1 X115.121 Y25.623 E2.36498
G1 X114.632 Y25.873 E2.39940
G1 X114.090 Y25.958 E2.43381
G1 X113.548 Y25.873 E2.46822
G1 X113.059 Y25.623 E2.50264
G1 X112.671 Y25.235 E2.53705
G1 X112.456 Y24.813 E2.56674
G1 X111.936 Y24.616 F9000.000
G1 X155.460 Y72.961
G1 X156.233 Y72.567 F900.000 E2.62113
G1 X157.090 Y72.432 E2.67550
G1 X157.947 Y72.567 E2.72988
G1 X158.720 Y72.961 E2.78426
G1 X159.333 Y73.574 E2.83863
G1 X159.727 Y74.347 E2.89302
G1 X159.862 Y75.204 E2.94740
G1 X159.765 Y75.818 E2.98635
G1 X159.727 Y76.061 E3.00177
G1 X159.333 Y76.834 E3.05616
G1 X158.720 Y77.447 E3.11053
G1 X157.947 Y77.841 E3.16491
G1 X157.090 Y77.976 E3.21929
G1 X156.233 Y77.841 E3.27367
G1 X155.460 Y77.447 E3.32805
G1 X154.847 Y76.834 E3.38242
G1 X154.453 Y76.061 E3.43680
G1 X154.318 Y75.204 E3.49118
G1 X154.453 Y74.347 E3.54556
G1 X154.847 Y73.574 E3.59994
G1 X155.407 Y73.015 E3.64959
G1 X155.760 Y73.373 F9000.000
G1 X156.391 Y73.051 F900.000 E3.69399
G1 X157.090 Y72.941 E3.73838
G1 X157.789 Y73.051 E3.78278
G1 X158.420 Y73.373 E3.82718
G1 X158.921 Y73.874 E3.87157
G1 X159.243 Y74.505 E3.91597
G1 X159.353 Y75.204 E3.96037
G1 X159.243 Y75.903 E4.00476
G1 X158.921 Y76.534 E4.04916
G1 X158.420 Y77.035 E4.09355
G1 X157.789 Y77.357 E4.13795
G1 X157.090 Y77.467 E4.18235
G1 X156.391 Y77.357 E4.22674
G1 X155.760 Y77.035 E4.27114
G1 X155.259 Y76.534 E4.31553
G1 X154.937 Y75.903 E4.35993
G1 X154.827 Y75.204 E4.40433
G1 X154.937 Y74.505 E4.44872
G1 X155.259 Y73.874 E4.49312
G1 X155.706 Y73.426 E4.53278
G1 X156.059 Y73.785 F9000.000
G1 X156.548 Y73.535 F900.000 E4.56720
G1 X157.090 Y73.450 E4.60161
G1 X157.632 Y73.535 E4.63602
G1 X158.121 Y73.785 E4.67044
G1 X158.509 Y74.173 E4.70485
G1 X158.759 Y74.662 E4.73927
G1 X158.844 Y75.204 E4.77368
G1 X158.759 Y75.746 E4.80809
G1 X158.509 Y76.235 E4.84251
G1 X158.121 Y76.623 E4.87692
G1 X157.632 Y76.873 E4.91134
G1 X157.090 Y76.958 E4.94575
G1 X156.548 Y76.873 E4.98016
G1 X156.059 Y76.623 E5.01458
G1 X155.671 Y76.235 E5.04899
G1 X155.421 Y75.746 E5.08341
G1 X155.336 Y75.204 E5.11782
G1 X155.421 Y74.662 E5.15223
G1 X155.671 Y74.173 E5.18665
G1 X156.005 Y73.838 E5.21633
G1 X156.032 Y73.283 F9000.000
G1 X147.380 Y72.204
G1 X146.974 Y74.766 F900.000 E5.37893
G1 X145.797 Y77.077 E5.54154
G1 X143.963 Y78.911 E5.70416
G1 X141.652 Y80.088 E5.86677
G1 X138.807 Y80.539 E6.04734
G1 X138.765 Y80.466 E6.05263
G1 X110.200 Y80.466 E7.84349
G1 X110.092 Y80.653 E7.85701
G1 X106.528 Y80.088 E8.08322
G1 X104.217 Y78.911 E8.24584
G1 X102.383 Y77.077 E8.40844
G1 X101.206 Y74.766 E8.57105
G1 X100.800 Y72.204 E8.73367
G1 X101.206 Y69.642 E8.89627
G1 X102.383 Y67.331 E9.05888
G1 X104.217 Y65.497 E9.22149
G1 X106.528 Y64.320 E9.38411
G1 X110.092 Y63.755 E9.61032
G1 X110.200 Y63.942 E9.62384
G1 X138.765 Y63.942 E11.41469
G1 X138.807 Y63.869 E11.41999
G1 X141.652 Y64.320 E11.60056
G1 X143.963 Y65.497 E11.76317
G1 X145.797 Y67.331 E11.92579
G1 X146.974 Y69.642 E12.08839
G1 X147.368 Y72.130 E12.24628
G1 X146.871 Y72.204 F9000.000
G1 X146.490 Y74.608 F900.000 E12.39890
G1 X145.385 Y76.778 E12.55152
G1 X143.664 Y78.499 E12.70416
G1 X141.495 Y79.604 E12.85679
G1 X139.070 Y79.989 E13.01071
G1 X139.055 Y79.963 E13.01254
G1 X109.910 Y79.963 E14.83978
G1 X109.829 Y80.102 E14.84984
G1 X106.686 Y79.604 E15.04939
G1 X104.516 Y78.499 E15.20203
G1 X102.795 Y76.778 E15.35465
G1 X101.690 Y74.609 E15.50728
G1 X101.309 Y72.204 E15.65991
G1 X101.690 Y69.799 E15.81254
G1 X102.795 Y67.630 E15.96517
G1 X104.516 Y65.909 E16.11779
G1 X106.686 Y64.804 E16.27043
G1 X109.829 Y64.306 E16.46998
G1 X109.910 Y64.445 E16.48005
G1 X139.055 Y64.445 E18.30728
G1 X139.070 Y64.419 E18.30911
G1 X141.495 Y64.804 E18.46304
G1 X143.664 Y65.909 E18.61567
G1 X145.385 Y67.630 E18.76830
G1 X146.490 Y69.799 E18.92092
G1 X146.859 Y72.130 E19.06882
G1 X146.362 Y72.204 F9000.000
G1 X146.006 Y74.451 F900.000 E19.21147
G1 X144.973 Y76.478 E19.35411
G1 X143.365 Y78.087 E19.49676
G1 X141.337 Y79.120 E19.63940
G1 X139.332 Y79.438 E19.76668
G1 X138.916 Y78.717 E19.81885
G1 X138.487 Y79.461 E19.87266
G1 X133.572 Y79.461 E20.18081
G1 X133.143 Y78.717 E20.23463
G1 X132.713 Y79.461 E20.28844
G1 X127.798 Y79.461 E20.59659
G1 X127.369 Y78.717 E20.65040
G1 X126.940 Y79.461 E20.70422
G1 X122.025 Y79.461 E21.01237
G1 X121.596 Y78.717 E21.06618
G1 X121.166 Y79.461 E21.11999
G1 X116.251 Y79.461 E21.42814
G1 X115.822 Y78.717 E21.48196
G1 X115.393 Y79.461 E21.53577
G1 X110.478 Y79.461 E21.84393
G1 X110.049 Y78.717 E21.89774
G1 X109.567 Y79.552 E21.95815
G1 X106.843 Y79.120 E22.13105
G1 X104.815 Y78.087 E22.27371
G1 X103.207 Y76.479 E22.41635
G1 X102.174 Y74.451 E22.55899
G1 X101.818 Y72.204 E22.70164
G1 X102.174 Y69.957 E22.84429
G1 X103.207 Y67.929 E22.98693
G1 X104.815 Y66.321 E23.12957
G1 X106.843 Y65.288 E23.27222
G1 X109.567 Y64.856 E23.44513
G1 X110.049 Y65.691 E23.50554
G1 X110.478 Y64.947 E23.55935
G1 X115.393 Y64.947 E23.86751
G1 X115.822 Y65.691 E23.92132
G1 X116.251 Y64.947 E23.97514
G1 X121.166 Y64.947 E24.28329
G1 X121.596 Y65.691 E24.33710
G1 X122.025 Y64.947 E24.39091
G1 X126.940 Y64.947 E24.69906
G1 X127.369 Y65.691 E24.75288
G1 X127.798 Y64.947 E24.80669
G1 X132.713 Y64.947 E25.11484
G1 X133.143 Y65.691 E25.16865
G1 X133.572 Y64.947 E25.22247
G1 X138.487 Y64.947 E25.53062
G1 X138.916 Y65.691 E25.58443
G1 X139.332 Y64.970 E25.63660
G1 X141.337 Y65.288 E25.76388
G1 X143.365 Y66.321 E25.90652
G1 X144.973 Y67.930 E26.04917
G1 X146.006 Y69.957 E26.19181
G1 X146.350 Y72.130 E26.32973
G1 X145.853 Y72.204 F9000.000
G1 X145.522 Y74.294 F900.000 E26.46239
G1 X144.562 Y76.179 E26.59505
G1 X143.065 Y77.676 E26.72772
G1 X141.180 Y78.636 E26.86038
G1 X139.595 Y78.887 E26.96101
G1 X138.916 Y77.712 E27.04611
G1 X138.197 Y78.958 E27.13631
G1 X133.862 Y78.958 E27.40807
G1 X133.143 Y77.712 E27.49827
G1 X132.423 Y78.958 E27.58847
G1 X128.089 Y78.958 E27.86023
G1 X127.369 Y77.712 E27.95044
G1 X126.650 Y78.958 E28.04064
G1 X122.315 Y78.958 E28.31240
G1 X121.596 Y77.712 E28.40260
G1 X120.876 Y78.958 E28.49280
G1 X116.542 Y78.958 E28.76456
G1 X115.822 Y77.712 E28.85477
G1 X115.103 Y78.958 E28.94497
G1 X110.768 Y78.958 E29.21674
G1 X110.049 Y77.712 E29.30694
G1 X109.304 Y79.001 E29.40027
G1 X107.000 Y78.636 E29.54653
G1 X105.115 Y77.676 E29.67919
G1 X103.618 Y76.179 E29.81186
G1 X102.658 Y74.294 E29.94452
G1 X102.327 Y72.204 E30.07718
G1 X102.658 Y70.114 E30.20985
G1 X103.618 Y68.229 E30.34251
G1 X105.115 Y66.732 E30.47517
G1 X107.000 Y65.772 E30.60784
G1 X109.304 Y65.407 E30.75410
G1 X110.049 Y66.696 E30.84743
G1 X110.768 Y65.450 E30.93763
G1 X115.103 Y65.450 E31.20940
G1 X115.822 Y66.696 E31.29960
G1 X116.542 Y65.450 E31.38980
G1 X120.876 Y65.450 E31.66157
G1 X121.596 Y66.696 E31.75177
G1 X122.315 Y65.450 E31.84197
G1 X126.650 Y65.450 E32.11373
G1 X127.369 Y66.696 E32.20393
G1 X128.089 Y65.450 E32.29414
G1 X132.423 Y65.450 E32.56589
G1 X133.143 Y66.696 E32.65610
G1 X133.862 Y65.450 E32.74630
G1 X138.197 Y65.450 E33.01806
G1 X138.916 Y66.696 E33.10826
G1 X139.595 Y65.520 E33.19336
G1 X141.180 Y65.772 E33.29399
G1 X143.065 Y66.732 E33.42665
G1 X144.562 Y68.229 E33.55932
G1 X145.522 Y70.114 E33.69197
G1 X145.842 Y72.130 E33.81991
G1 X145.344 Y72.204 F9000.000
G1 X145.038 Y74.137 F900.000 E33.94259
G1 X144.306 Y75.575 E34.04376
G1 X143.839 Y75.462 E34.07388
G1 X143.839 Y74.455 E34.13702
G1 X143.390 Y74.455 E34.16516
G1 X142.090 Y72.204 E34.32814
G1 X143.390 Y69.953 E34.49112
G1 X143.839 Y69.953 E34.51926
G1 X143.839 Y68.946 E34.58240
G1 X144.306 Y68.833 E34.61252
G1 X145.038 Y70.271 E34.71369
G1 X145.333 Y72.130 E34.83164
G1 X145.766 Y72.478 F9000.000
G1 F1800.000 E33.83164
G92 E0
G1 X109.761 Y67.204 F9000.000
G1 F1800.000 E1.00000
G1 X108.462 Y69.455 F900.000 E1.16298
G1 X105.862 Y69.455 E1.32596
G1 X104.852 Y67.706 E1.45261
G1 X105.414 Y67.144 E1.50242
G1 X107.157 Y66.256 E1.62510
G1 X109.042 Y65.957 E1.74471
G1 X109.724 Y67.139 E1.83024
G1 X110.146 Y67.527 F9000.000
G1 X108.222 Y69.953
G1 X107.865 Y70.489 F900.000 E1.87068
G1 X107.162 Y71.707 E1.95880
G1 X106.149 Y69.953 E2.08578
G1 X108.147 Y69.953 E2.21103
G1 X108.687 Y70.145 F9000.000
G1 X109.036 Y69.455
G1 X110.017 Y67.756 F900.000 E2.33407
G1 X110.344 Y68.214 E2.36936
G1 X111.061 Y69.455 E2.45925
G1 X109.111 Y69.455 E2.58150
G1 X108.564 Y69.283 F9000.000
G1 X110.581 Y67.630
G1 X110.336 Y67.204 F900.000 E2.61232
G1 X111.058 Y65.953 E2.70290
G1 X114.813 Y65.953 E2.93828
G1 X115.535 Y67.204 E3.02887
G1 X114.235 Y69.455 E3.19184
G1 X111.635 Y69.455 E3.35482
G1 X110.619 Y67.695 E3.48226
G1 X110.090 Y67.630 F9000.000
G1 X111.923 Y69.953
G1 X113.996 Y69.953 F900.000 E3.61224
G1 X113.638 Y70.489 E3.65269
G1 X112.935 Y71.707 E3.74080
G1 X111.960 Y70.018 E3.86306
G1 X111.835 Y69.458 F9000.000
G1 X114.809 Y69.455
G1 X115.531 Y68.205 F900.000 E3.95355
G1 X115.869 Y67.783 E3.98747
G1 X116.835 Y69.455 E4.10855
G1 X114.885 Y69.455 E4.23080
G1 X114.337 Y69.283 F9000.000
G1 X116.355 Y67.630
G1 X116.109 Y67.204 F900.000 E4.26161
G1 X116.832 Y65.953 E4.35220
G1 X120.586 Y65.953 E4.58757
G1 X121.308 Y67.204 E4.67816
G1 X120.009 Y69.455 E4.84114
G1 X117.409 Y69.455 E5.00412
G1 X116.393 Y67.695 E5.13156
G1 X115.863 Y67.630 F9000.000
G1 X117.736 Y69.953
G1 X119.722 Y69.953 F900.000 E5.25602
G1 X118.709 Y71.707 E5.38300
G1 X117.995 Y70.471 E5.47248
G1 X117.770 Y70.020 E5.50406
G1 X117.659 Y69.456 F9000.000
G1 X120.583 Y69.455
G1 X121.601 Y67.711 F900.000 E5.63067
G1 X122.608 Y69.455 E5.75692
G1 X120.658 Y69.455 E5.87916
G1 X120.111 Y69.282 F9000.000
G1 X122.128 Y67.630
G1 X121.883 Y67.204 F900.000 E5.90998
G1 X122.605 Y65.953 E6.00057
G1 X126.360 Y65.953 E6.23594
G1 X127.082 Y67.204 E6.32652
G1 X125.782 Y69.455 E6.48950
G1 X123.182 Y69.455 E6.65248
G1 X122.166 Y67.695 E6.77992
G1 X121.637 Y67.630 F9000.000
G1 X123.422 Y69.953
G1 X125.495 Y69.953 F900.000 E6.90990
G1 X124.482 Y71.707 E7.03688
G1 X123.780 Y70.489 E7.12500
G1 X123.464 Y70.015 E7.16072
G1 X123.324 Y69.460 F9000.000
G1 X126.356 Y69.455
G1 X127.369 Y67.701 F900.000 E7.28769
G1 X128.382 Y69.455 E7.41467
G1 X126.432 Y69.455 E7.53691
G1 X125.884 Y69.283 F9000.000
G1 X127.902 Y67.630
G1 X127.656 Y67.204 F900.000 E7.56773
G1 X128.379 Y65.953 E7.65832
G1 X132.133 Y65.953 E7.89369
G1 X132.855 Y67.204 E7.98428
G1 X131.556 Y69.455 E8.14725
G1 X128.956 Y69.455 E8.31023
G1 X127.940 Y67.695 E8.43767
G1 X127.410 Y67.630 F9000.000
G1 X129.195 Y69.953
G1 X131.269 Y69.953 F900.000 E8.56766
G1 X130.256 Y71.707 E8.69463
G1 X129.553 Y70.489 E8.78275
G1 X129.237 Y70.015 E8.81847
G1 X129.097 Y69.460 F9000.000
G1 X132.130 Y69.455
G1 X133.143 Y67.701 F900.000 E8.94544
G1 X134.155 Y69.455 E9.07242
G1 X132.205 Y69.455 E9.19467
G1 X131.658 Y69.283 F9000.000
G1 X133.675 Y67.630
G1 X133.430 Y67.204 F900.000 E9.22548
G1 X134.152 Y65.953 E9.31607
G1 X137.907 Y65.953 E9.55144
G1 X138.629 Y67.204 E9.64203
G1 X137.329 Y69.455 E9.80500
G1 X134.729 Y69.455 E9.96798
G1 X133.713 Y67.695 E10.09542
G1 X133.184 Y67.630 F9000.000
G1 X135.057 Y69.953
G1 X137.042 Y69.953 F900.000 E10.21989
G1 X136.029 Y71.707 E10.34687
G1 X135.316 Y70.471 E10.43635
G1 X135.090 Y70.020 E10.46792
G1 X134.979 Y69.456 F9000.000
G1 X137.903 Y69.455
G1 X138.922 Y67.711 F900.000 E10.59454
G1 X139.929 Y69.455 E10.72078
G1 X137.979 Y69.455 E10.84303
G1 X137.432 Y69.282 F9000.000
G1 X139.449 Y67.630
G1 X139.203 Y67.204 F900.000 E10.87385
G1 X139.857 Y66.071 E10.95587
G1 X141.023 Y66.256 E11.02984
G1 X142.766 Y67.144 E11.15252
G1 X143.825 Y68.203 E11.24643
G1 X143.103 Y69.455 E11.33707
G1 X140.503 Y69.455 E11.50005
G1 X139.487 Y67.695 E11.62749
G1 X138.957 Y67.630 F9000.000
G1 X140.790 Y69.953
G1 X142.816 Y69.953 F900.000 E11.75447
G1 X141.803 Y71.707 E11.88144
G1 X140.828 Y70.018 E12.00369
G1 X140.703 Y69.458 F9000.000
G1 X141.771 Y72.756
G1 X142.099 Y73.214 F900.000 E12.03898
G1 X142.816 Y74.455 E12.12887
G1 X140.790 Y74.455 E12.25584
